X: 1
T:Killaloe Boat, The
M:6/8
L:1/8
K:A Dorian
G|EAA EAA|BAB G2A|Bee edB|dBA GED|EAA EAA|BAB G2A|Bee edB | dBA A2 :|
|:d|eaa age|dBA G2A|Bee edB|def gfg|eaa age|dBA G2A|Bee edB| dBA A2 :|

